svg/Pictogram/pictograms-nps-pets_on_leash.svg

<svg xmlns="http://www.w3.org/2000/svg" width="123.55" height="123.54" viewBox="-0.258 -0.548 123.547 123.539" enable-background="new -0.258 -0.548 123.547 123.539"><path d="m109.65 123.6c8.148 0 14.766-6.594 14.766-14.75v-94.02c0-8.156-6.617-14.773-14.766-14.773h-94.03c-8.141 0-14.758 6.617-14.758 14.773v94.02c0 8.156 6.617 14.75 14.758 14.75h94.03"/><path d="m15.617 2.551c-6.75 0-12.25 5.516-12.25 12.281v94.02c0 6.742 5.5 12.234 12.25 12.234h94.03c6.758 0 12.25-5.492 12.25-12.234v-94.02c0-6.766-5.492-12.281-12.25-12.281h-94.03"/><g fill="#fff"><path d="m71.7 52.48l-51.61-24.539v-4.881l53.32 25.561z"/><path d="m54.07 79.43h22.594v20.16c0 3.297 2.656 5.953 5.953 5.953 3.297 0 5.984-2.656 5.984-5.953v-20.16c1.781 0 1.953-1.172 1.953-2.547v-15.03l-18.874-9.234h-40.12l-5.18-2.93c-1.656-.953-3.766-.367-4.711 1.297-.938 1.656-.367 3.758 1.297 4.711l8.18 4.688v39.21c0 3.297 2.672 5.953 5.969 5.953 3.297 0 5.969-2.656 5.969-5.953l-.016-15.36 10.82 18.266c1.68 2.828 5.336 3.758 8.195 2.07 2.805-1.68 3.734-5.367 2.047-8.203l-10.06-16.937"/><path d="m73.54 48.52l16.99 8.08v-3.17l13.84-.03 5.07-10.912-35.9-17.11z"/></g></svg>

<?xml version="1.0" encoding="iso-8859-1"?>
<!-- Generator: Adobe Illustrator 13.0.2, SVG Export Plug-In . SVG Version: 6.00 Build 14948)  -->
<!DOCTYPE svg PUBLIC "-//W3C//DTD SVG 1.1//EN" "http://www.w3.org/Graphics/SVG/1.1/DTD/svg11.dtd">
<svg version="1.1" id="Layer_1" xmlns="http://www.w3.org/2000/svg" xmlns:xlink="http://www.w3.org/1999/xlink" x="0px" y="0px"
	 width="123.547px" height="123.539px" viewBox="-0.258 -0.548 123.547 123.539"
	 style="enable-background:new -0.258 -0.548 123.547 123.539;" xml:space="preserve">
<g>
	<path style="fill:#000000;" d="M109.648,123.598c8.148,0,14.766-6.594,14.766-14.75V14.832c0-8.156-6.617-14.773-14.766-14.773
		H15.617c-8.141,0-14.758,6.617-14.758,14.773v94.016c0,8.156,6.617,14.75,14.758,14.75H109.648z"/>
	<path style="fill:#000000;" d="M15.617,2.551c-6.75,0-12.25,5.516-12.25,12.281v94.016c0,6.742,5.5,12.234,12.25,12.234h94.031
		c6.758,0,12.25-5.492,12.25-12.234V14.832c0-6.766-5.492-12.281-12.25-12.281H15.617z"/>
	<polygon style="fill:#FFFFFF;" points="71.703,52.48 20.086,27.941 20.086,23.059 73.414,48.621 	"/>
	<path style="fill:#FFFFFF;" d="M54.07,79.434h22.594v20.164c0,3.297,2.656,5.953,5.953,5.953l0,0c3.297,0,5.984-2.656,5.984-5.953
		V79.434c1.781,0,1.953-1.172,1.953-2.547V61.855L71.68,52.621H31.562l-5.18-2.93c-1.656-0.953-3.766-0.367-4.711,1.297l0,0
		c-0.938,1.656-0.367,3.758,1.297,4.711l8.18,4.688v39.211c0,3.297,2.672,5.953,5.969,5.953l0,0c3.297,0,5.969-2.656,5.969-5.953
		L43.07,84.238l10.82,18.266c1.68,2.828,5.336,3.758,8.195,2.07l0,0c2.805-1.68,3.734-5.367,2.047-8.203L54.07,79.434z"/>
	<polygon style="fill:#FFFFFF;" points="73.539,48.52 90.531,56.605 90.531,53.426 104.367,53.402 109.445,42.488 73.539,25.379 	
		"/>
</g>
</svg>
